X:45
T:The Dark Girl (Dressed in Blue)
M:4/4
L:1/4
K:D
D/E/|:"D"FA Ad|"G"Bd "D"A>F|"G"GB "D"AF/A/|"Em"BE "A7"G/F/E/D/|
"D"FA Ad|"G"B/c/d/B/ "D"A/B/A/F/|"G"GB "A7"A/B/A/G/|"D"FD D>E:|
|:"D"FA A/B/d/e/|f/g/f/d/ (3e/f/e/d|"G"Bd/B/ "D"AF/A/|"Em"BE "A7"G/F/E/D/|
"D"FA A/B/d/e/|f/g/f/d/ (3e/f/e/d|"G"Bd/B/ "A7"A/B/A/G/|1"D"FD D>E:|2"D"FDD2|]
